storage/app/icons/phosphoricons/bold/medal-bold.svg

<svg xmlns="http://www.w3.org/2000/svg" fill="currentColor" viewBox="0 0 256 256"><path d="M220 96a92 92 0 1 0-152 69.69V240a12 12 0 0 0 17.37 10.73L128 229.42l42.64 21.31A12 12 0 0 0 188 240v-74.31A91.86 91.86 0 0 0 220 96M60 96a68 68 0 1 1 68 68 68.07 68.07 0 0 1-68-68m104 124.59-30.64-15.32a12 12 0 0 0-10.74 0L92 220.58v-39.92a92 92 0 0 0 72 0ZM128 148a52 52 0 1 0-52-52 52.06 52.06 0 0 0 52 52m0-80a28 28 0 1 1-28 28 28 28 0 0 1 28-28"/></svg>

<svg xmlns="http://www.w3.org/2000/svg" viewBox="0 0 256 256" fill="currentColor"><path d="M220,96A92,92,0,1,0,68,165.69V240a12,12,0,0,0,17.37,10.73L128,229.42l42.64,21.31A12,12,0,0,0,188,240V165.69A91.86,91.86,0,0,0,220,96ZM60,96a68,68,0,1,1,68,68A68.07,68.07,0,0,1,60,96ZM164,220.59l-30.64-15.32a12,12,0,0,0-10.74,0L92,220.58V180.66a92,92,0,0,0,72,0ZM128,148A52,52,0,1,0,76,96,52.06,52.06,0,0,0,128,148Zm0-80a28,28,0,1,1-28,28A28,28,0,0,1,128,68Z"/></svg>
